actions/scalable/mail-signed-full.svg

<?xml version="1.0" encoding="UTF-8" standalone="no"?>
<!-- Created with Inkscape (http://www.inkscape.org/) -->

<svg
   xmlns:dc="http://purl.org/dc/elements/1.1/"
   xmlns:cc="http://creativecommons.org/ns#"
   xmlns:rdf="http://www.w3.org/1999/02/22-rdf-syntax-ns#"
   xmlns:svg="http://www.w3.org/2000/svg"
   xmlns="http://www.w3.org/2000/svg"
   xmlns:sodipodi="http://sodipodi.sourceforge.net/DTD/sodipodi-0.dtd"
   xmlns:inkscape="http://www.inkscape.org/namespaces/inkscape"
   width="22"
   height="22"
   id="svg3869"
   version="1.1"
   inkscape:version="0.48+devel r"
   sodipodi:docname="mail-signed-full.svg">
  <defs
     id="defs3871" />
  <sodipodi:namedview
     id="base"
     pagecolor="#ffffff"
     bordercolor="#666666"
     borderopacity="1.0"
     inkscape:pageopacity="0.0"
     inkscape:pageshadow="2"
     inkscape:zoom="256"
     inkscape:cx="16.105745"
     inkscape:cy="8.4967151"
     inkscape:document-units="px"
     inkscape:current-layer="layer1"
     showgrid="true"
     fit-margin-top="0"
     fit-margin-left="0"
     fit-margin-right="0"
     fit-margin-bottom="0"
     inkscape:window-width="1366"
     inkscape:window-height="666"
     inkscape:window-x="-2"
     inkscape:window-y="25"
     inkscape:window-maximized="1"
     inkscape:showpageshadow="false"
     showguides="true">
    <inkscape:grid
       type="xygrid"
       id="grid4132" />
    <sodipodi:guide
       position="2,20.000017"
       orientation="18,0"
       id="guide4138" />
    <sodipodi:guide
       position="2,2.0000174"
       orientation="0,18"
       id="guide4140" />
    <sodipodi:guide
       position="20,2.0000174"
       orientation="-18,0"
       id="guide4142" />
    <sodipodi:guide
       position="20,20.000017"
       orientation="0,-18"
       id="guide4144" />
    <sodipodi:guide
       position="3,19.000017"
       orientation="16,0"
       id="guide4146" />
    <sodipodi:guide
       position="3,3.0000174"
       orientation="0,16"
       id="guide4148" />
    <sodipodi:guide
       position="19,3.0000174"
       orientation="-16,0"
       id="guide4150" />
    <sodipodi:guide
       position="19,19.000017"
       orientation="0,-16"
       id="guide4152" />
    <sodipodi:guide
       position="0,9.0000174"
       orientation="6,0"
       id="guide4181" />
    <sodipodi:guide
       position="0,3.0000174"
       orientation="0,22"
       id="guide4183" />
    <sodipodi:guide
       position="22,3.0000174"
       orientation="-6,0"
       id="guide4185" />
    <sodipodi:guide
       position="-1,3.0000174"
       orientation="0,12"
       id="guide4195" />
    <sodipodi:guide
       position="11,3.0000174"
       orientation="-16,0"
       id="guide4197" />
    <sodipodi:guide
       position="11,19.000017"
       orientation="0,-12"
       id="guide4199" />
    <sodipodi:guide
       position="11,9.048828"
       orientation="-1.414063,0"
       id="guide4223" />
    <sodipodi:guide
       position="2.4628906,19"
       orientation="0,-1.4140625"
       id="guide4227" />
    <sodipodi:guide
       position="11,9.04883"
       orientation="-1.41406,0"
       id="guide4233" />
    <sodipodi:guide
       position="19.53711,19"
       orientation="0,1.41406"
       id="guide4237" />
    <sodipodi:guide
       position="15,9.0000174"
       orientation="6,0"
       id="guide4158" />
    <sodipodi:guide
       position="15,3.0000174"
       orientation="0,6"
       id="guide4160" />
    <sodipodi:guide
       position="21,3.0000174"
       orientation="-6,0"
       id="guide4162" />
    <sodipodi:guide
       position="21,9.0000174"
       orientation="0,-6"
       id="guide4164" />
  </sodipodi:namedview>
  <metadata
     id="metadata3874">
    <rdf:RDF>
      <cc:Work
         rdf:about="">
        <dc:format>image/svg+xml</dc:format>
        <dc:type
           rdf:resource="http://purl.org/dc/dcmitype/StillImage" />
        <dc:title />
      </cc:Work>
    </rdf:RDF>
  </metadata>
  <g
     inkscape:label="Capa 1"
     inkscape:groupmode="layer"
     id="layer1"
     transform="translate(-326,-534.3622)">
    <path
       style="opacity:1;fill:#666666;fill-opacity:1;stroke:none;stroke-width:2.79999995;stroke-miterlimit:4;stroke-dasharray:none;stroke-opacity:0.55026455"
       d="m 1,3 0,1 0,8 0,6 0,0.414062 L 1,19 l 1,0 6,0 3,0 0,-1 -3,0 -6,0 0,-0.585938 0.4628906,-0.46289 6.2675782,-6.267578 1.4531252,1.451172 0.814453,0.814453 0.002,0 0.816406,-0.814453 1.453125,-1.451172 L 14.585938,12 16,12 13.976562,9.9765625 19.728516,4.2226562 19.951172,4 20,4 20,4.2226562 20,10 21,10 21,3 20.951172,3 20,3 19.537109,3 2.4628906,3 2,3 Z M 2,4 2.0488281,4 2.2714844,4.2226562 8.0234375,9.9765625 2,16 2,12 2,4.2226562 Z M 3.4628906,4 18.537109,4 11,11.537109 Z"
       transform="translate(326,534.3622)"
       id="rect4144"
       inkscape:connector-curvature="0"
       sodipodi:nodetypes="cccccccccccccccccccccccccccccccccccccccccccccccc" />
    <path
       style="fill:#27ae60;fill-opacity:1;stroke:none"
       d="M 19 11 L 18.003906 11.994141 L 18 11.990234 L 13 16.988281 L 13.005859 16.994141 L 13 17 L 13.007812 17.007812 L 13.003906 18 L 13 18 L 13 18.990234 L 13 19 L 15 19 L 15.005859 18.994141 L 15.009766 18.990234 C 15.013766 18.990214 15.015531 18.992187 15.019531 18.992188 L 15.013672 18.986328 L 16 18 L 20 14.003906 C 19.995745 14.006408 19.994484 14.007267 19.990234 14.009766 L 20 13.998047 L 20.998047 13 L 21 12.998047 L 19 11 z "
       transform="translate(326,534.3622)"
       id="rect4139" />
  </g>
</svg>

<svg height="22" width="22" xmlns="http://www.w3.org/2000/svg" xmlns:sodipodi="http://sodipodi.sourceforge.net/DTD/sodipodi-0.dtd" xmlns:inkscape="http://www.inkscape.org/namespaces/inkscape">
 <path d="m1 3v1 8 6 0.41406 0.586h1 6 3v-1h-3-6v-0.58594l0.46289-0.46289 6.2676-6.2676 1.4531 1.4512 0.81445 0.81445h0.002l0.81641-0.81445 1.4531-1.4512 1.317 1.316h1.414l-2.023-2.0234 5.752-5.7539 0.222-0.2227h0.049v0.2227 5.7773h1v-7h-0.049-0.951-0.463-17.074-0.463zm1 1h0.0488l0.2227 0.2227 5.7519 5.7539-6.0234 6.0234v-4-7.7773zm1.4629 0h15.074l-7.537 7.537z" fill="#4d4d4d" transform="matrix(1 0 0 1 0 0)"/>
 <path d="m19 11l-0.996 0.994-0.004-0.004-5 4.998 0.006 0.006-0.006 0.006 0.008 0.008-0.004 0.992h-0.004v0.99 0.01h2l0.006-0.006 0.004-0.004c0.004 0 0.006 0.002 0.01 0.002l-0.006-0.006 0.986-0.986 4-3.996c-0.004 0.002-0.006 0.003-0.01 0.006l0.01-0.012 0.998-0.998 0.002-0.002-2-1.998z" fill="#27ae60" transform="matrix(1 0 0 1 0 0)"/>
</svg>
